X:1
T:Stealing
T:Stealing
T:The Balkan Princess
T:Paul Rubens
C:Paul Rubens
%%score 1 2 { ( 3 5 ) | ( 4 6 ) }
L:1/8
Q:1/4=60
M:2/4
K:Eb
V:1 treble-8 nm="Blatz" snm="Bl"
V:2 treble-8 nm="Hein" snm="He"
V:3 treble nm="Piano"
V:5 treble 
V:4 bass 
V:6 bass 
V:1
"^Quasi lento" z4 | z4 | z4 | z2 z C3/4 D/4 | E F ^F G | c/ c/ G E C3/4 D/4 | E C E C | G3 z | z4 | %9
w: |||It is|some- times shown That|mon- ey a- lone Is a|bur- glar's on- ly|aim.||
 z4 | z4 | z2 z (E/>F/) | G/ G/ A =A B | E3 (B,/>C/) | ^C D E D | G =A B A3/4 G/4 | ^F/ F/ G =A F | %17
w: ||Oh! _|ve- ry loud cries of|"shame!" They _|lit- tle guess That|we poss- ess A po-|et- i- cal turn of|
 D3 z | z4 | z4 | z4 | z2 z B3/4 c/4 | d c/ c/ B =A | G2 !fermata!_G2 ||[K:C] F =G e d | B G A B | %26
w: mind.||||Yes, an'|us peep- ing thro' be-|'ind! Oh,|When the moon comes|steal- ing Thro' the|
 c3/4 d/4 c3/4 B/4 A E | G3 A | B3/4 c/4 B3/4 A/4 G D | G3 A | E G ^D G | E G A E | F G e d | %33
w: branch- es of the old oak|trees \-  Yes,|steal- ing with the ev- 'ning|breeze, And|floods the night With|sil- ver light, It's|then a sort of|
 B G A B | c3/4 d/4 c3/4 B/4 A E | G3 ^G | A e f ^c | e d =c A | B3/4 c/4 B3/4 A/4 G d | c4 || %40
w: feel- ing Comes a-|steal- ing o- ver ev- 'ry|man, To|go a- steal- ing,|steal- ing, steal- ing,|Steal- ing ev- ¨ry- thing he|can!|
[K:Eb] z4 | z4 | z4 | z2 !fermata!z C3/4 D/4 | E F ^F G | c G/ G/ E (C/>D/) | E C E C | G3 z | z4 | %49
w: |||Oh, we|love ro- mance! When|we get a chance We _|do our jobs in|verse!||
 z4 | z4 | z2 z E3/4 F/4 | G A =A B | E3 (B,/>C/) | ^C D E D | G =A B (A/>G/) | ^F G =A F | D3 z | %58
w: ||If it's|emp- ty, we say|worse! We _|some- times sing That|pret- ty thing "Oft _|in the stil- ly|night,"|
 z4 | z4 | z4 | z2 z B3/4 c/4 | d c/ c/ B =A | G2 !fermata!_G2 ||[K:C] F =G e d | B G A B | %66
w: |||Yes, and|my ten- or part¨s all|right! Oh,|When the dawn is|break- ing In a|
 c3/4 d/4 c3/4 B/4 A E | G3 A | B3/4 c/4 B3/4 A/4 G D | G3 A | E G ^D G | E G A E | F G e d | %73
w: phan- ta- sy of gold- en|light, Yes,|break- ing thro' the veil of|night, With|shafts of gold, And|hues un- told, It¨s|then a sort of|
 B G A B | c3/4 d/4 c3/4 B/4 A E | G3 ^G | A e f ^c | e d =c A | B3/4 c/4 B3/4 A/4 G d | c4 |] %80
w: ach- ing Comes a-|break- ing o- ver ev- 'ry|man, To|go a- break- ing,|break- ing, break- ing|In- to ev- 'ry house he|can!|
V:2
 z4 | z4 | z4 | z4 | z4 | z4 | z4 | z2 z C3/4 D/4 | E F ^F G/ G/ | c G E C3/4 D/4 | E/ E/ C E D | %11
w: |||||||There's a|wide be- lief That a|so- called thief Plays a|hor- ri- bly low- down|
 C3 z | z4 | z4 | z4 | z4 | z4 | z2 z B,3/4 C/4 | ^C D E D/ D/ | G =A B (A/>G/) | d =A/ A/ d B | %21
w: game.||||||For at|half- past three It's a|dream to see The _|moon peep- ing thro' the|
 G3 z | z4 | z4 ||[K:C] F =G e d | B G A B | c3/4 d/4 c3/4 B/4 A E | G3 A | B3/4 c/4 B3/4 A/4 G D | %29
w: blind!|||When the moon comes|steal- ing Thro' the|branch- es of the old oak|trees \-  Yes,|steal- ing with the ev- 'ning|
 G3 A | E G ^D G | E G A E | F G e d | B G A B | c3/4 d/4 c3/4 B/4 A E | G3 ^G | A e f ^c | %37
w: breeze, And|floods the night With|sil- ver light, It's|then a sort of|feel- ing Comes a-|steal- ing o- ver ev- 'ry|man, To|go a- steal- ing,|
 e d =c A | B3/4 c/4 B3/4 A/4 G d | c4 ||[K:Eb] z4 | z4 | z4 | z4 | z4 | z4 | z4 | z2 z C3/4 D/4 | %48
w: steal- ing, steal- ing,|Steal- ing ev- ¨ry- thing he|can!||||||||We re-|
 E F ^F G | c G E C3/4 D/4 | E C E D | C3 z | z4 | z4 | z4 | z4 | z4 | z2 z (B,/>C/) | %58
w: cite "To be, or|not to be," When we|see a la- dy's|purse!||||||Or _|
 ^C D E D/ D/ | G =A B A3/4 G/4 | d =A d B | G3 z | z4 | z4 ||[K:C] F =G e d | B G A B | %66
w: "In the Park It's a|bit too dark, So we|can't go home to-|night."|||When the dawn is|break- ing In a|
 c3/4 d/4 c3/4 B/4 A E | G3 A | B3/4 c/4 B3/4 A/4 G D | G3 A | E G ^D G | E G A E | F G e d | %73
w: phan- ta- sy of gold- en|light, Yes,|break- ing thro' the veil of|night, With|shafts of gold, And|hues un- told, It¨s|then a sort of|
 B G A B | c3/4 d/4 c3/4 B/4 A E | G3 ^G | A e f ^c | e d =c A | B3/4 c/4 B3/4 A/4 G d | c4 |] %80
w: ach- ing Comes a-|break- ing o- ver ev- 'ry|man, To|go a- break- ing,|break- ing, break- ing|In- to ev- 'ry house he|can!|
V:3
!p!"^staccato" .g.d .e.=B | .c.!courtesy!_A .G.D | .E.=B, .C.A, | .G, z z2 | z [CE] z [CE] | %5
 z [CE] z [CE] | z [CE] z [^F,C] | z [=B,G] z2 | z [CE] z [CE] | z [CE] z [CE] | %10
 z [CE] z [F,=B,D] | z [E,C]2 E/>F/ | [G,EG][A,EA] [=A,D=A]!arpeggio![_A,DB] | z [G,E]2 z | %14
 z [B,D] z [B,D] | z [DGB] z [DGB] | z [D^F=A] z [DFA] | z [G,C_E] [^F,CD] z | z [B,D] z [B,D] | %19
 z [DGB] z [DGB] | z [^F=Ad] z [CF_B] | z [B,G]2 B/>c/ | dc B=A | G2 !fermata!_G2 ||[K:C] F=G ed | %25
 BG AB | c/>d/c/>B/ AE | G3 A | B/>c/B/>A/ G[A,CD] | G3 [B,^DA] |{/A} EG{/G} ^DG |{/G} EG AE | %32
 FG ed | BG AB | c/>d/c/>B/ AE | G3 [^G,^G] | [A,^CA][EGe] [Ff][CA^c] | [Ee][DFd] =c[CFA] | %38
 B/>c/B/>A/ Gd | [Ec]2- [Ec]/4G/4!<(!A/4B/4c/4d/4e/4(f/4!<)! ||[K:Eb] .g).d .e!>(!.=B | %41
 .c.!courtesy!_A .G!>)!.D | .E.=B, .C.A, | .G, z!p! z2 | z [CE] z [CE] | z [CE] z [CE] | %46
 z [CE] z [^F,C] | z [=B,G] z2 | z [CE] z [CE] | z [CE] z [CE] | z [CE] z [F,=B,D] | %51
 z [E,C]2 E/>F/ | [G,EG][A,EA] [=A,D=A]!arpeggio![_A,DB] | z [G,E]2 z | z [B,D] z [B,D] | %55
 z [DGB] z [DGB] | z [D^F=A] z [DFA] | z [G,C_E] [^F,CD] z | z [B,D] z [B,D] | z [DGB] z [DGB] | %60
 z [^F=Ad] z [CF_B] | z [B,G]2 B/>c/ | dc B=A | G2 !fermata!_G2 ||[K:C] F=G ed | BG AB | %66
 c/>d/c/>B/ AE | G3 A | B/>c/B/>A/ G[A,CD] | G3 [B,^DA] |{/A} EG{/G} ^DG |{/G} EG AE | FG ed | %73
 BG AB | c/>d/c/>B/ AE | G3 [^G,^G] | [A,^CA][EGe] [Ff][CA^c] | [Ee][DFd] =c[CFA] | B/>c/B/>A/ Gd | %79
 [Ec] z [cec']2 |] %80
V:4
 .G.D .E.=B, | .C.A, .G,.D, | .E,.=B,, .C,.A,, | .G,, z z C,/>D,/ | E,F, ^F,G, | CG, E,C,/>D,/ | %6
 E,C,{/A,,} E,C, | G,,D, G,C,/>D,/ | E,F, ^F,G, | CG, E,C,/>D,/ | E,C, G,G,, | C,G,, C,, z | %12
 [C,,C,][_C,,_C,] [B,,,B,,][B,,,B,,] | E,,B,, E,B,,/>C,/ | ^C,D, E,D, | G,=A, B,A,/>G,/ | %16
 ^F,G, =A,F, | D,3 B,,/>C,/ | ^C,D, E,D, | G,=A, B,A,/>G,/ | D=A, DD, | G,,D, G,B,/>C/ | DC B,=A, | %23
 G,2 !fermata!_G,2 ||[K:C] D,[=G,B,] G,,[G,B,] | D,[G,B,] G,,[G,B,] | C,G, G,,G, | C,2 G,,2 | %28
 D,G, G,,G, | D,2 G,,G, | C,G, G,,G, | C,G, ^C,G, | D,[G,=B,] G,,[G,B,] | D,[G,B,] G,,[G,B,] | %34
 C,G, G,,G, | C,2 G,,2 | [E,,E,][A,^C] [G,,G,][G,A,] | [F,,F,][F,A,] D,,D, | G,A, B, x | %39
 [C,G,C]G,, C,, z ||[K:Eb] .G.D .E.=B, | .C.A, .G,.D, | .E,.=B,, .C,.A,, | %43
 .G,, z !fermata!z C,/>D,/ | E,F, ^F,G, | CG, E,C,/>D,/ | E,C,{/A,,} E,C, | G,,D, G,C,/>D,/ | %48
 E,F, ^F,G, | CG, E,C,/>D,/ | E,C, G,G,, | C,G,, C,, z | [C,,C,][_C,,_C,] [B,,,B,,][B,,,B,,] | %53
 E,,B,, E,B,,/>C,/ | ^C,D, E,D, | G,=A, B,A,/>G,/ | ^F,G, =A,F, | D,3 B,,/>C,/ | ^C,D, E,D, | %59
 G,=A, B,A,/>G,/ | D=A, DD, | G,,D, G,B,/>C/ | DC B,=A, | G,2 !fermata!_G,2 || %64
[K:C] D,[=G,B,] G,,[G,B,] | D,[G,B,] G,,[G,B,] | C,G, G,,G, | C,2 G,,2 | D,G, G,,G, | D,2 G,,G, | %70
 C,G, G,,G, | C,G, ^C,G, | D,[G,=B,] G,,[G,B,] | D,[G,B,] G,,[G,B,] | C,G, G,,G, | C,2 G,,2 | %76
 [E,,E,][A,^C] [G,,G,][G,A,] | [F,,F,][F,A,] D,,D, | G,A, B, x | [C,G,C] z [C,,G,,C,]2 |] %80
V:5
 x4 | x4 | x4 | x4 | x4 | x4 | x4 | x4 | x4 | x4 | x4 | x4 | x4 | x4 | x4 | x4 | x4 | x4 | x4 | %19
 x4 | x4 | x4 | x4 | x4 ||[K:C] z F z F | z F z F | z E z C | z !>![A,CE] !>![G,CE] z | z F z x | %29
 z !>![G,CF] !>![G,B,F] x | z [CE] z [B,=D] | z [CE] z _B, | z F z F | z F z F | z E z C | %35
 z !>![A,CE] !>![G,CE] x | x4 | x4 | FF F[FG] | x4 ||[K:Eb] x4 | x4 | x4 | x4 | x4 | x4 | x4 | x4 | %48
 x4 | x4 | x4 | x4 | x4 | x4 | x4 | x4 | x4 | x4 | x4 | x4 | x4 | x4 | x4 | x4 ||[K:C] z F z F | %65
 z F z F | z E z C | z !>![A,CE] !>![G,CE] z | z F z x | z !>![G,CF] !>![G,B,F] x | %70
 z [CE] z [B,=D] | z [CE] z _B, | z F z F | z F z F | z E z C | z !>![A,CE] !>![G,CE] x | x4 | x4 | %78
 FF F[FG] | x4 |] %80
V:6
 x4 | x4 | x4 | x4 | x4 | x4 | x4 | x4 | x4 | x4 | x4 | x4 | x4 | x4 | x4 | x4 | x4 | x4 | x4 | %19
 x4 | x4 | x4 | x4 | x4 ||[K:C] x4 | x4 | x4 | x4 | x4 | x4 | x4 | x4 | x4 | x4 | x4 | x4 | x4 | %37
 x4 | G,,3 !arpeggio![G,,B,] | x4 ||[K:Eb] x4 | x4 | x4 | x4 | x4 | x4 | x4 | x4 | x4 | x4 | x4 | %51
 x4 | x4 | x4 | x4 | x4 | x4 | x4 | x4 | x4 | x4 | x4 | x4 | x4 ||[K:C] x4 | x4 | x4 | x4 | x4 | %69
 x4 | x4 | x4 | x4 | x4 | x4 | x4 | x4 | x4 | G,,3 !arpeggio![G,,B,] | x4 |] %80

